X:0445
M:6/8
L:1/8
Q:3/8=120
K:A Minor
E|A3   c2e|dBG dBG|A3   c2d        |ece ece|
  gag ^f2e|dBg dBG|A2A (c/B/c/d/).e|dBG A2::
  aba Tg2e|dBg dBG|A2A  c/B/c/d/e  |dBG A2:|

